X:2
T:Premi\`ere fantasie
P:Treble I
C:Nicholas M\'etru 
O:Fantasies a deux parties pour les violes (1642)
%%measurenb 0
M:4/4
L:1/4
K:F
F2 A>B |c/A/ d c B/A/ | G/F/ G F G | A B2 A-| A f2 e |
d2 c f-|f e f>e|d/c/ d c>B |A2 z2 | c2 d>e |f/d/ g f>e|
d/c/ d c B | A d2 c/d/ |e/c/ f2 e | f d c f-|f _e d>f | =e a g>c |
A B c/C/D/E/ |F2 A>B |c/A/ d c B/A/| G/F/ G F2 | z c2 B | A/ B c/ d c-|
c B2 A/G/ | A f2 e/d/ | e f g d-| d c/B/ A B-|B A2 G/F/ | c2 d>e |
f/d/ g f>e |d/c/ d c>B | A2 z G-|G A B A/G/ | A B2 A-|A G/F/ E A |
G2 z2 | F2 A>B | c/A/ d c B/A/ |G/F/ G F>G | A G/A/ B/d/c/B/ | A B c d-|
d/e/f/d/ g f-|f e/d/c/d/ B|A f2 d |e f2 e-|e d2 c/B/| A/ F G/ A2 |
z B2 A | c2 d>e | f/d/ g f>e | d/c/ d c B/A/ | G/F/ G F B | A B c A-|
A f2 _e | d g2 f-| f e/d/c/B/ A | F2 A>B |c/A/ d c B/A/ |G/F/ G F2 | z A2 G | 
A/B/ c B2 | A f d d |^c2 d>=c | =B c2 B | c A G>A | B2 A2 | z f2 e/d/ |
e f _e d-| d B2 A | c2 d>e | f/d/ g f>e | d/c/ d c f-| f e/d/ e2 | Hf4 |]

